src/icons/28/QR Code.svg

<svg fill="none" height="24" viewBox="0 0 24 24" width="24" xmlns="http://www.w3.org/2000/svg"><path clip-rule="evenodd" d="m6.14319 2.72144h.02825 1.37143.02825.00001.00002c.45597-.00001.84039-.00002 1.15524.0257.32959.02693.6447.08554.94435.23822.45566.23215.82606.60258 1.05816 1.0582.1527.29966.2113.61476.2383.94435.0257.31486.0257.6993.0257 1.15529v.02824 1.37143.02824c0 .45598 0 .84042-.0257 1.15528-.027.32959-.0856.6447-.2383.94435-.2321.45566-.6025.82606-1.05816 1.05816-.29965.1527-.61476.2113-.94435.2383-.31486.0257-.6993.0257-1.15528.0257h-.02824-1.37143-.02825c-.45598 0-.84042 0-1.15528-.0257-.32959-.027-.64469-.0856-.94435-.2383-.45562-.2321-.82605-.6025-1.0582-1.05816-.15269-.29965-.21129-.61476-.23822-.94435-.02572-.31485-.02571-.69927-.0257-1.15524v-.00002-.00001-.02825-1.37143-.02826-.00002c-.00001-.45597-.00002-.8404.0257-1.15525.02693-.32959.08554-.64469.23822-.94435.23215-.45562.60258-.82605 1.0582-1.0582.29966-.15269.61476-.21129.94435-.23822.31485-.02572.69928-.02571 1.15524-.0257h.00002zm-1.04011 1.43529c-.24213.01978-.3504.0546-.41745.08876-.1895.09656-.34358.25064-.44014.44014-.03416.06705-.06898.17532-.08876.41745-.02046.25039-.02101.57664-.02101 1.06836v1.37143c0 .49171.00055.81797.02101 1.06835.01978.24213.0546.3504.08876.41745.09656.18951.25064.34358.44014.44014.06705.03416.17532.06898.41745.08876.25039.02046.57664.02101 1.06836.02101h1.37143c.49171 0 .81797-.00055 1.06835-.02101.24213-.01978.3504-.0546.41745-.08876.18951-.09656.34358-.25063.44014-.44014.03416-.06705.06898-.17532.08876-.41745.02046-.25038.02101-.57664.02101-1.06835v-1.37143c0-.49172-.00055-.81797-.02101-1.06836-.01978-.24213-.0546-.3504-.08876-.41745-.09656-.1895-.25063-.34358-.44014-.44014-.06705-.03416-.17532-.06898-.41745-.08876-.25038-.02046-.57664-.02101-1.06835-.02101h-1.37143c-.49172 0-.81797.00055-1.06836.02101zm.68264 2.31471c0-.24003 0-.36004.04671-.45171.04109-.08064.10666-.14621.1873-.1873.09167-.04671.21168-.04671.45171-.04671h.77143c.24002 0 .36003 0 .45171.04671.08064.04109.1462.10666.18729.1873.04671.09167.04671.21168.04671.45171v.77143c0 .24002 0 .36003-.04671.45171-.04109.08064-.10665.1462-.18729.18729-.09168.04671-.21169.04671-.45171.04671h-.77143c-.24003 0-.36004 0-.45171-.04671-.08064-.04109-.14621-.10665-.1873-.18729-.04671-.09168-.04671-.21169-.04671-.45171zm.35747 6.53566h.02825 1.37143.02825.00003.00003c.45595 0 .84037 0 1.15521.0258.32959.0269.6447.0855.94435.2382.45566.2321.82606.6026 1.05816 1.0582.1527.2996.2113.6147.2383.9443.0257.3149.0257.6993.0257 1.1553v.0283 1.3714.0282c0 .456 0 .8404-.0257 1.1553-.027.3296-.0856.6447-.2383.9444-.2321.4556-.6025.826-1.05816 1.0582-.29965.1526-.61476.2112-.94435.2382-.31483.0257-.69923.0257-1.15517.0257h-.00008-.00003-.02824-1.37143-.02825-.00003-.00008c-.45594 0-.84034 0-1.15517-.0257-.32959-.027-.64469-.0856-.94435-.2382-.45562-.2322-.82605-.6026-1.0582-1.0582-.15269-.2997-.21129-.6148-.23822-.9444-.02572-.3148-.02571-.6993-.0257-1.1552v-.0001-.0282-1.3715-.0282c-.00001-.456-.00002-.8404.0257-1.1553.02693-.3296.08554-.6447.23822-.9443.23215-.4556.60258-.8261 1.0582-1.0582.29966-.1527.61476-.2113.94435-.2382.31484-.0258.69926-.0258 1.15521-.0258h.00003zm-1.04011 1.4353c-.24213.0198-.3504.0546-.41745.0888-.1895.0966-.34358.2506-.44014.4401-.03416.0671-.06898.1754-.08876.4175-.02046.2504-.02101.5766-.02101 1.0683v1.3715c0 .4917.00055.8179.02101 1.0683.01978.2422.0546.3504.08876.4175.09656.1895.25064.3436.44014.4401.06705.0342.17532.069.41745.0888.25039.0204.57664.021 1.06836.021h1.37143c.49171 0 .81797-.0006 1.06835-.021.24213-.0198.3504-.0546.41745-.0888.18951-.0965.34358-.2506.44014-.4401.03416-.0671.06898-.1753.08876-.4175.02046-.2504.02101-.5766.02101-1.0683v-1.3714c0-.4918-.00055-.818-.02101-1.0684-.01978-.2421-.0546-.3504-.08876-.4175-.09656-.1895-.25063-.3435-.44014-.4401-.06705-.0342-.17532-.069-.41745-.0888-.25038-.0204-.57664-.021-1.06835-.021h-1.37143c-.49172 0-.81797.0006-1.06836.021zm.68264 2.3147c0-.24 0-.36.04671-.4517.04109-.0806.10666-.1462.1873-.1873.09167-.0467.21168-.0467.45171-.0467h.77143c.24002 0 .36003 0 .45171.0467.08064.0411.1462.1067.18729.1873.04671.0917.04671.2117.04671.4517v.7715c0 .24 0 .36-.04671.4517-.04109.0806-.10665.1462-.18729.1873-.09168.0467-.21169.0467-.45171.0467h-.77143c-.24003 0-.36004 0-.45171-.0467-.08064-.0411-.14621-.1067-.1873-.1873-.04671-.0917-.04671-.2117-.04671-.4517zm7.71428-2.5714c0-.24 0-.36.0467-.4517.0411-.0806.1067-.1462.1873-.1873.0917-.0467.2117-.0467.4517-.0467h.7714c.2401 0 .3601 0 .4518.0467.0806.0411.1462.1067.1873.1873.0467.0917.0467.2117.0467.4517v.7714c0 .2401 0 .3601-.0467.4518-.0411.0806-.1067.1462-.1873.1873-.0917.0467-.2117.0467-.4518.0467h-.7714c-.24 0-.36 0-.4517-.0467-.0806-.0411-.1462-.1067-.1873-.1873-.0467-.0917-.0467-.2117-.0467-.4518zm2.5714 2.5714c0-.24 0-.36.0467-.4517.0411-.0806.1067-.1462.1873-.1873.0917-.0467.2117-.0467.4517-.0467h.7715c.24 0 .36 0 .4517.0467.0806.0411.1462.1067.1873.1873.0467.0917.0467.2117.0467.4517v.7715c0 .24 0 .36-.0467.4517-.0411.0806-.1067.1462-.1873.1873-.0917.0467-.2117.0467-.4517.0467h-.7715c-.24 0-.36 0-.4517-.0467-.0806-.0411-.1462-.1067-.1873-.1873-.0467-.0917-.0467-.2117-.0467-.4517zm-2.5247 2.1198c-.0467.0916-.0467.2117-.0467.4517v.7714c0 .24 0 .36.0467.4517.0411.0807.1067.1462.1873.1873.0917.0467.2117.0467.4517.0467h.7714c.2401 0 .3601 0 .4518-.0467.0806-.0411.1462-.1066.1873-.1873.0467-.0917.0467-.2117.0467-.4517v-.7714c0-.24 0-.3601-.0467-.4517-.0411-.0807-.1067-.1462-.1873-.1873-.0917-.0467-.2117-.0467-.4518-.0467h-.7714c-.24 0-.36 0-.4517.0467-.0806.0411-.1462.1066-.1873.1873zm5.0962-4.6912c0-.24 0-.36.0467-.4517.0411-.0806.1066-.1462.1873-.1873.0916-.0467.2117-.0467.4517-.0467h.7714c.24 0 .36 0 .4517.0467.0807.0411.1462.1067.1873.1873.0467.0917.0467.2117.0467.4517v.7714c0 .2401 0 .3601-.0467.4518-.0411.0806-.1066.1462-.1873.1873-.0917.0467-.2117.0467-.4517.0467h-.7714c-.24 0-.3601 0-.4517-.0467-.0807-.0411-.1462-.1067-.1873-.1873-.0467-.0917-.0467-.2117-.0467-.4518zm.0467 4.6912c-.0467.0916-.0467.2117-.0467.4517v.7714c0 .24 0 .36.0467.4517.0411.0807.1066.1462.1873.1873.0916.0467.2117.0467.4517.0467h.7714c.24 0 .36 0 .4517-.0467.0807-.0411.1462-.1066.1873-.1873.0467-.0917.0467-.2117.0467-.4517v-.7714c0-.24 0-.3601-.0467-.4517-.0411-.0807-.1066-.1462-.1873-.1873-.0917-.0467-.2117-.0467-.4517-.0467h-.7714c-.24 0-.3601 0-.4517.0467-.0807.0411-.1462.1066-.1873.1873zm-2.2607-16.15546h.0283 1.3714.0282.0001c.4559-.00001.8404-.00002 1.1552.0257.3296.02693.6447.08554.9444.23822.4556.23215.826.60258 1.0582 1.0582.1526.29966.2112.61476.2382.94435.0257.31483.0257.69923.0257 1.15517v.00008.00004.02824 1.37143.02824.00004.00008c0 .45593 0 .84033-.0257 1.15516-.027.32959-.0856.6447-.2382.94435-.2322.45566-.6026.82606-1.0582 1.05816-.2997.1527-.6148.2113-.9444.2383-.3149.0257-.6993.0257-1.1553.0257h-.0282-1.3715-.0282c-.456 0-.8404 0-1.1553-.0257-.3296-.027-.6447-.0856-.9443-.2383-.4556-.2321-.8261-.6025-1.0582-1.05816-.1527-.29965-.2113-.61476-.2382-.94435-.0258-.31484-.0258-.69926-.0258-1.15521v-.00003-.00003-.02825-1.37143-.02826-.00003-.00002c0-.45596 0-.84038.0258-1.15522.0269-.32959.0855-.64469.2382-.94435.2321-.45562.6026-.82605 1.0582-1.0582.2996-.15269.6147-.21129.9443-.23822.3149-.02572.6993-.02571 1.1553-.0257zm-1.0401 1.43529c-.2421.01978-.3504.0546-.4175.08876-.1895.09656-.3435.25064-.4401.44014-.0342.06705-.069.17532-.0888.41745-.0204.25039-.021.57664-.021 1.06836v1.37143c0 .49171.0006.81797.021 1.06835.0198.24213.0546.3504.0888.41745.0966.18951.2506.34358.4401.44014.0671.03416.1754.06898.4175.08876.2504.02046.5766.02101 1.0683.02101h1.3715c.4917 0 .8179-.00055 1.0683-.02101.2422-.01978.3504-.0546.4175-.08876.1895-.09656.3436-.25063.4401-.44014.0342-.06705.069-.17532.0888-.41745.0204-.25038.021-.57664.021-1.06835v-1.37143c0-.49172-.0006-.81797-.021-1.06836-.0198-.24213-.0546-.3504-.0888-.41745-.0965-.1895-.2506-.34358-.4401-.44014-.0671-.03416-.1753-.06898-.4175-.08876-.2504-.02046-.5766-.02101-1.0683-.02101h-1.3714c-.4918 0-.818.00055-1.0684.02101zm.6826 2.31471c0-.24003 0-.36004.0467-.45171.0411-.08064.1067-.14621.1873-.1873.0917-.04671.2117-.04671.4517-.04671h.7715c.24 0 .36 0 .4517.04671.0806.04109.1462.10666.1873.1873.0467.09167.0467.21168.0467.45171v.77143c0 .24002 0 .36003-.0467.45171-.0411.08064-.1067.1462-.1873.18729-.0917.04671-.2117.04671-.4517.04671h-.7715c-.24 0-.36 0-.4517-.04671-.0806-.04109-.1462-.10665-.1873-.18729-.0467-.09168-.0467-.21169-.0467-.45171z" fill="#fff" fill-rule="evenodd"/></svg>

<svg width="24" height="24" viewBox="0 0 24 24" fill="none" xmlns="http://www.w3.org/2000/svg">
<path fill-rule="evenodd" clip-rule="evenodd" d="M6.14319 2.72144H6.17144H7.54287H7.57112H7.57113H7.57115C8.02712 2.72143 8.41154 2.72142 8.72639 2.74714C9.05598 2.77407 9.37109 2.83268 9.67074 2.98536C10.1264 3.21751 10.4968 3.58794 10.7289 4.04356C10.8816 4.34322 10.9402 4.65832 10.9672 4.98791C10.9929 5.30277 10.9929 5.68721 10.9929 6.1432V6.17144V7.54287V7.57111C10.9929 8.02709 10.9929 8.41153 10.9672 8.72639C10.9402 9.05598 10.8816 9.37109 10.7289 9.67074C10.4968 10.1264 10.1264 10.4968 9.67074 10.7289C9.37109 10.8816 9.05598 10.9402 8.72639 10.9672C8.41153 10.9929 8.02709 10.9929 7.57111 10.9929H7.54287H6.17144H6.14319C5.68721 10.9929 5.30277 10.9929 4.98791 10.9672C4.65832 10.9402 4.34322 10.8816 4.04356 10.7289C3.58794 10.4968 3.21751 10.1264 2.98536 9.67074C2.83267 9.37109 2.77407 9.05598 2.74714 8.72639C2.72142 8.41154 2.72143 8.02712 2.72144 7.57115V7.57113V7.57112V7.54287V6.17144V6.14318V6.14318V6.14316C2.72143 5.68719 2.72142 5.30276 2.74714 4.98791C2.77407 4.65832 2.83268 4.34322 2.98536 4.04356C3.21751 3.58794 3.58794 3.21751 4.04356 2.98536C4.34322 2.83267 4.65832 2.77407 4.98791 2.74714C5.30276 2.72142 5.68719 2.72143 6.14315 2.72144H6.14317H6.14319ZM5.10308 4.15673C4.86095 4.17651 4.75268 4.21133 4.68563 4.24549C4.49613 4.34205 4.34205 4.49613 4.24549 4.68563C4.21133 4.75268 4.17651 4.86095 4.15673 5.10308C4.13627 5.35347 4.13572 5.67972 4.13572 6.17144V7.54287C4.13572 8.03458 4.13627 8.36084 4.15673 8.61122C4.17651 8.85335 4.21133 8.96162 4.24549 9.02867C4.34205 9.21818 4.49613 9.37225 4.68563 9.46881C4.75268 9.50297 4.86095 9.53779 5.10308 9.55757C5.35347 9.57803 5.67972 9.57858 6.17144 9.57858H7.54287C8.03458 9.57858 8.36084 9.57803 8.61122 9.55757C8.85335 9.53779 8.96162 9.50297 9.02867 9.46881C9.21818 9.37225 9.37225 9.21818 9.46881 9.02867C9.50297 8.96162 9.53779 8.85335 9.55757 8.61122C9.57803 8.36084 9.57858 8.03458 9.57858 7.54287V6.17144C9.57858 5.67972 9.57803 5.35347 9.55757 5.10308C9.53779 4.86095 9.50297 4.75268 9.46881 4.68563C9.37225 4.49613 9.21818 4.34205 9.02867 4.24549C8.96162 4.21133 8.85335 4.17651 8.61122 4.15673C8.36084 4.13627 8.03458 4.13572 7.54287 4.13572H6.17144C5.67972 4.13572 5.35347 4.13627 5.10308 4.15673ZM5.78572 6.47144C5.78572 6.23141 5.78572 6.1114 5.83243 6.01973C5.87352 5.93909 5.93909 5.87352 6.01973 5.83243C6.1114 5.78572 6.23141 5.78572 6.47144 5.78572H7.24287C7.48289 5.78572 7.6029 5.78572 7.69458 5.83243C7.77522 5.87352 7.84078 5.93909 7.88187 6.01973C7.92858 6.1114 7.92858 6.23141 7.92858 6.47144V7.24287C7.92858 7.48289 7.92858 7.6029 7.88187 7.69458C7.84078 7.77522 7.77522 7.84078 7.69458 7.88187C7.6029 7.92858 7.48289 7.92858 7.24287 7.92858H6.47144C6.23141 7.92858 6.1114 7.92858 6.01973 7.88187C5.93909 7.84078 5.87352 7.77522 5.83243 7.69458C5.78572 7.6029 5.78572 7.48289 5.78572 7.24287V6.47144ZM6.14319 13.0071H6.17144H7.54287H7.57112H7.57115H7.57118C8.02713 13.0071 8.41155 13.0071 8.72639 13.0329C9.05598 13.0598 9.37109 13.1184 9.67074 13.2711C10.1264 13.5032 10.4968 13.8737 10.7289 14.3293C10.8816 14.6289 10.9402 14.944 10.9672 15.2736C10.9929 15.5885 10.9929 15.9729 10.9929 16.4289V16.4572V17.8286V17.8568C10.9929 18.3128 10.9929 18.6972 10.9672 19.0121C10.9402 19.3417 10.8816 19.6568 10.7289 19.9565C10.4968 20.4121 10.1264 20.7825 9.67074 21.0147C9.37109 21.1673 9.05598 21.2259 8.72639 21.2529C8.41156 21.2786 8.02716 21.2786 7.57122 21.2786H7.57114H7.57111H7.54287H6.17144H6.14319H6.14316H6.14308C5.68714 21.2786 5.30274 21.2786 4.98791 21.2529C4.65832 21.2259 4.34322 21.1673 4.04356 21.0147C3.58794 20.7825 3.21751 20.4121 2.98536 19.9565C2.83267 19.6568 2.77407 19.3417 2.74714 19.0121C2.72142 18.6973 2.72143 18.3128 2.72144 17.8569V17.8568V17.8568V17.8286V16.4571V16.4289V16.4289V16.4289C2.72143 15.9729 2.72142 15.5885 2.74714 15.2736C2.77407 14.944 2.83268 14.6289 2.98536 14.3293C3.21751 13.8737 3.58794 13.5032 4.04356 13.2711C4.34322 13.1184 4.65832 13.0598 4.98791 13.0329C5.30275 13.0071 5.68717 13.0071 6.14312 13.0071H6.14315H6.14319ZM5.10308 14.4424C4.86095 14.4622 4.75268 14.497 4.68563 14.5312C4.49613 14.6278 4.34205 14.7818 4.24549 14.9713C4.21133 15.0384 4.17651 15.1467 4.15673 15.3888C4.13627 15.6392 4.13572 15.9654 4.13572 16.4571V17.8286C4.13572 18.3203 4.13627 18.6465 4.15673 18.8969C4.17651 19.1391 4.21133 19.2473 4.24549 19.3144C4.34205 19.5039 4.49613 19.658 4.68563 19.7545C4.75268 19.7887 4.86095 19.8235 5.10308 19.8433C5.35347 19.8637 5.67972 19.8643 6.17144 19.8643H7.54287C8.03458 19.8643 8.36084 19.8637 8.61122 19.8433C8.85335 19.8235 8.96162 19.7887 9.02867 19.7545C9.21818 19.658 9.37225 19.5039 9.46881 19.3144C9.50297 19.2473 9.53779 19.1391 9.55757 18.8969C9.57803 18.6465 9.57858 18.3203 9.57858 17.8286V16.4572C9.57858 15.9654 9.57803 15.6392 9.55757 15.3888C9.53779 15.1467 9.50297 15.0384 9.46881 14.9713C9.37225 14.7818 9.21818 14.6278 9.02867 14.5312C8.96162 14.497 8.85335 14.4622 8.61122 14.4424C8.36084 14.422 8.03458 14.4214 7.54287 14.4214H6.17144C5.67972 14.4214 5.35347 14.422 5.10308 14.4424ZM5.78572 16.7571C5.78572 16.5171 5.78572 16.3971 5.83243 16.3054C5.87352 16.2248 5.93909 16.1592 6.01973 16.1181C6.1114 16.0714 6.23141 16.0714 6.47144 16.0714H7.24287C7.48289 16.0714 7.6029 16.0714 7.69458 16.1181C7.77522 16.1592 7.84078 16.2248 7.88187 16.3054C7.92858 16.3971 7.92858 16.5171 7.92858 16.7571V17.5286C7.92858 17.7686 7.92858 17.8886 7.88187 17.9803C7.84078 18.0609 7.77522 18.1265 7.69458 18.1676C7.6029 18.2143 7.48289 18.2143 7.24287 18.2143H6.47144C6.23141 18.2143 6.1114 18.2143 6.01973 18.1676C5.93909 18.1265 5.87352 18.0609 5.83243 17.9803C5.78572 17.8886 5.78572 17.7686 5.78572 17.5286V16.7571ZM13.5 14.1857C13.5 13.9457 13.5 13.8257 13.5467 13.734C13.5878 13.6534 13.6534 13.5878 13.734 13.5467C13.8257 13.5 13.9457 13.5 14.1857 13.5H14.9571C15.1972 13.5 15.3172 13.5 15.4089 13.5467C15.4895 13.5878 15.5551 13.6534 15.5962 13.734C15.6429 13.8257 15.6429 13.9457 15.6429 14.1857V14.9571C15.6429 15.1972 15.6429 15.3172 15.5962 15.4089C15.5551 15.4895 15.4895 15.5551 15.4089 15.5962C15.3172 15.6429 15.1972 15.6429 14.9571 15.6429H14.1857C13.9457 15.6429 13.8257 15.6429 13.734 15.5962C13.6534 15.5551 13.5878 15.4895 13.5467 15.4089C13.5 15.3172 13.5 15.1972 13.5 14.9571V14.1857ZM16.0714 16.7571C16.0714 16.5171 16.0714 16.3971 16.1181 16.3054C16.1592 16.2248 16.2248 16.1592 16.3054 16.1181C16.3971 16.0714 16.5171 16.0714 16.7571 16.0714H17.5286C17.7686 16.0714 17.8886 16.0714 17.9803 16.1181C18.0609 16.1592 18.1265 16.2248 18.1676 16.3054C18.2143 16.3971 18.2143 16.5171 18.2143 16.7571V17.5286C18.2143 17.7686 18.2143 17.8886 18.1676 17.9803C18.1265 18.0609 18.0609 18.1265 17.9803 18.1676C17.8886 18.2143 17.7686 18.2143 17.5286 18.2143H16.7571C16.5171 18.2143 16.3971 18.2143 16.3054 18.1676C16.2248 18.1265 16.1592 18.0609 16.1181 17.9803C16.0714 17.8886 16.0714 17.7686 16.0714 17.5286V16.7571ZM13.5467 18.8769C13.5 18.9685 13.5 19.0886 13.5 19.3286V20.1C13.5 20.34 13.5 20.46 13.5467 20.5517C13.5878 20.6324 13.6534 20.6979 13.734 20.739C13.8257 20.7857 13.9457 20.7857 14.1857 20.7857H14.9571C15.1972 20.7857 15.3172 20.7857 15.4089 20.739C15.4895 20.6979 15.5551 20.6324 15.5962 20.5517C15.6429 20.46 15.6429 20.34 15.6429 20.1V19.3286C15.6429 19.0886 15.6429 18.9685 15.5962 18.8769C15.5551 18.7962 15.4895 18.7307 15.4089 18.6896C15.3172 18.6429 15.1972 18.6429 14.9571 18.6429H14.1857C13.9457 18.6429 13.8257 18.6429 13.734 18.6896C13.6534 18.7307 13.5878 18.7962 13.5467 18.8769ZM18.6429 14.1857C18.6429 13.9457 18.6429 13.8257 18.6896 13.734C18.7307 13.6534 18.7962 13.5878 18.8769 13.5467C18.9685 13.5 19.0886 13.5 19.3286 13.5H20.1C20.34 13.5 20.46 13.5 20.5517 13.5467C20.6324 13.5878 20.6979 13.6534 20.739 13.734C20.7857 13.8257 20.7857 13.9457 20.7857 14.1857V14.9571C20.7857 15.1972 20.7857 15.3172 20.739 15.4089C20.6979 15.4895 20.6324 15.5551 20.5517 15.5962C20.46 15.6429 20.34 15.6429 20.1 15.6429H19.3286C19.0886 15.6429 18.9685 15.6429 18.8769 15.5962C18.7962 15.5551 18.7307 15.4895 18.6896 15.4089C18.6429 15.3172 18.6429 15.1972 18.6429 14.9571V14.1857ZM18.6896 18.8769C18.6429 18.9685 18.6429 19.0886 18.6429 19.3286V20.1C18.6429 20.34 18.6429 20.46 18.6896 20.5517C18.7307 20.6324 18.7962 20.6979 18.8769 20.739C18.9685 20.7857 19.0886 20.7857 19.3286 20.7857H20.1C20.34 20.7857 20.46 20.7857 20.5517 20.739C20.6324 20.6979 20.6979 20.6324 20.739 20.5517C20.7857 20.46 20.7857 20.34 20.7857 20.1V19.3286C20.7857 19.0886 20.7857 18.9685 20.739 18.8769C20.6979 18.7962 20.6324 18.7307 20.5517 18.6896C20.46 18.6429 20.34 18.6429 20.1 18.6429H19.3286C19.0886 18.6429 18.9685 18.6429 18.8769 18.6896C18.7962 18.7307 18.7307 18.7962 18.6896 18.8769ZM16.4289 2.72144H16.4572H17.8286H17.8568H17.8568H17.8569C18.3128 2.72143 18.6973 2.72142 19.0121 2.74714C19.3417 2.77407 19.6568 2.83268 19.9565 2.98536C20.4121 3.21751 20.7825 3.58794 21.0147 4.04356C21.1673 4.34322 21.2259 4.65832 21.2529 4.98791C21.2786 5.30274 21.2786 5.68714 21.2786 6.14308V6.14316V6.1432V6.17144V7.54287V7.57111V7.57115V7.57123C21.2786 8.02716 21.2786 8.41156 21.2529 8.72639C21.2259 9.05598 21.1673 9.37109 21.0147 9.67074C20.7825 10.1264 20.4121 10.4968 19.9565 10.7289C19.6568 10.8816 19.3417 10.9402 19.0121 10.9672C18.6972 10.9929 18.3128 10.9929 17.8568 10.9929H17.8286H16.4571H16.4289C15.9729 10.9929 15.5885 10.9929 15.2736 10.9672C14.944 10.9402 14.6289 10.8816 14.3293 10.7289C13.8737 10.4968 13.5032 10.1264 13.2711 9.67074C13.1184 9.37109 13.0598 9.05598 13.0329 8.72639C13.0071 8.41155 13.0071 8.02713 13.0071 7.57118V7.57115V7.57112V7.54287V6.17144V6.14318V6.14315V6.14313C13.0071 5.68717 13.0071 5.30275 13.0329 4.98791C13.0598 4.65832 13.1184 4.34322 13.2711 4.04356C13.5032 3.58794 13.8737 3.21751 14.3293 2.98536C14.6289 2.83267 14.944 2.77407 15.2736 2.74714C15.5885 2.72142 15.9729 2.72143 16.4289 2.72144H16.4289H16.4289ZM15.3888 4.15673C15.1467 4.17651 15.0384 4.21133 14.9713 4.24549C14.7818 4.34205 14.6278 4.49613 14.5312 4.68563C14.497 4.75268 14.4622 4.86095 14.4424 5.10308C14.422 5.35347 14.4214 5.67972 14.4214 6.17144V7.54287C14.4214 8.03458 14.422 8.36084 14.4424 8.61122C14.4622 8.85335 14.497 8.96162 14.5312 9.02867C14.6278 9.21818 14.7818 9.37225 14.9713 9.46881C15.0384 9.50297 15.1467 9.53779 15.3888 9.55757C15.6392 9.57803 15.9654 9.57858 16.4571 9.57858H17.8286C18.3203 9.57858 18.6465 9.57803 18.8969 9.55757C19.1391 9.53779 19.2473 9.50297 19.3144 9.46881C19.5039 9.37225 19.658 9.21818 19.7545 9.02867C19.7887 8.96162 19.8235 8.85335 19.8433 8.61122C19.8637 8.36084 19.8643 8.03458 19.8643 7.54287V6.17144C19.8643 5.67972 19.8637 5.35347 19.8433 5.10308C19.8235 4.86095 19.7887 4.75268 19.7545 4.68563C19.658 4.49613 19.5039 4.34205 19.3144 4.24549C19.2473 4.21133 19.1391 4.17651 18.8969 4.15673C18.6465 4.13627 18.3203 4.13572 17.8286 4.13572H16.4572C15.9654 4.13572 15.6392 4.13627 15.3888 4.15673ZM16.0714 6.47144C16.0714 6.23141 16.0714 6.1114 16.1181 6.01973C16.1592 5.93909 16.2248 5.87352 16.3054 5.83243C16.3971 5.78572 16.5171 5.78572 16.7571 5.78572H17.5286C17.7686 5.78572 17.8886 5.78572 17.9803 5.83243C18.0609 5.87352 18.1265 5.93909 18.1676 6.01973C18.2143 6.1114 18.2143 6.23141 18.2143 6.47144V7.24287C18.2143 7.48289 18.2143 7.6029 18.1676 7.69458C18.1265 7.77522 18.0609 7.84078 17.9803 7.88187C17.8886 7.92858 17.7686 7.92858 17.5286 7.92858H16.7571C16.5171 7.92858 16.3971 7.92858 16.3054 7.88187C16.2248 7.84078 16.1592 7.77522 16.1181 7.69458C16.0714 7.6029 16.0714 7.48289 16.0714 7.24287V6.47144Z" fill="white"/>
</svg>
